public/img/benefits/arch-interior.svg

<svg width="50" height="50" viewBox="0 0 50 50" fill="none" xmlns="http://www.w3.org/2000/svg">
<path d="M16.7644 18.8504C19.3388 18.8504 21.4333 16.756 21.4333 14.1815C21.4333 11.6071 19.3388 9.5127 16.7644 9.5127C14.19 9.5127 12.0956 11.6071 12.0956 14.1815C12.0956 16.756 14.19 18.8504 16.7644 18.8504ZM16.7644 12.4425C17.7234 12.4425 18.5036 13.2227 18.5036 14.1816C18.5036 15.1406 17.7234 15.9208 16.7644 15.9208C15.8054 15.9208 15.0253 15.1406 15.0253 14.1816C15.0253 13.2227 15.8054 12.4425 16.7644 12.4425Z" fill="#61594D"/>
<path d="M27.0977 14.1817C27.0977 8.98144 23.236 4.6668 18.2296 3.95322V0H15.3V3.95312C10.2937 4.6667 6.4319 8.98135 6.4319 14.1816C6.4319 14.349 6.43385 27.4405 6.43385 27.4405H3.41852V30.3702H6.43395V42.9188L12.2933 47.0796V50H15.223V30.3702H18.3067V50H21.2364V47.0795L27.0958 42.9188V30.3702H30.1112V27.4405H27.0958C27.0958 27.4405 27.0977 14.2691 27.0977 14.1817ZM16.7648 6.77852C20.8469 6.77852 24.168 10.0996 24.168 14.1817C24.168 18.2639 20.8469 21.585 16.7648 21.585C12.6827 21.585 9.36158 18.2639 9.36158 14.1817C9.36158 10.0996 12.6827 6.77852 16.7648 6.77852ZM9.36364 41.4061V21.3842C10.2048 22.2484 11.1952 22.9668 12.2933 23.4961V43.4863L9.36364 41.4061ZM15.223 27.4405V24.3994C15.7261 24.475 16.241 24.5146 16.7649 24.5146C17.2888 24.5146 17.8036 24.475 18.3068 24.3994V27.4405H15.223ZM21.2364 43.4863V23.4961C22.3345 22.9668 23.3249 22.2484 24.1661 21.3842V41.4061L21.2364 43.4863Z" fill="#61594D"/>
<path d="M33.4769 0V50H46.584V0H33.4769ZM43.6543 47.0703H36.4066V43.9852H40.0304V41.0555H36.4066V38.1258H40.0304V35.1961H36.4066V32.2664H40.0304V29.3367H36.4066V26.407H40.0304V23.4773H36.4066V20.5477H40.0304V17.618H36.4066V14.6883H40.0304V11.7586H36.4066V8.82891H40.0304V5.89922H36.4066V2.92969H43.6543V47.0703Z" fill="#61594D"/>
</svg>

<svg width="50" height="50" fill="none" xmlns="http://www.w3.org/2000/svg"><path d="M16.764 18.85a4.674 4.674 0 004.67-4.669 4.674 4.674 0 00-4.67-4.668 4.674 4.674 0 00-4.668 4.668 4.674 4.674 0 004.668 4.67zm0-6.408c.96 0 1.74.78 1.74 1.74 0 .959-.78 1.739-1.74 1.739-.959 0-1.739-.78-1.739-1.74 0-.958.78-1.738 1.74-1.738z" fill="#61594D"/><path d="M27.098 14.182c0-5.2-3.862-9.515-8.868-10.229V0H15.3v3.953c-5.006.714-8.868 5.028-8.868 10.229l.002 13.258H3.419v2.93h3.015v12.55l5.86 4.16V50h2.929V30.37h3.084V50h2.93v-2.92l5.859-4.161V30.37h3.015v-2.93h-3.015l.002-13.258zM16.765 6.779c4.082 0 7.403 3.32 7.403 7.403 0 4.082-3.321 7.403-7.403 7.403-4.082 0-7.403-3.321-7.403-7.403 0-4.082 3.32-7.403 7.403-7.403zM9.364 41.406V21.384a10.384 10.384 0 002.93 2.112v19.99l-2.93-2.08zm5.859-13.965v-3.042a10.371 10.371 0 003.084 0v3.041h-3.084zm6.013 16.045v-19.99a10.384 10.384 0 002.93-2.112v20.022l-2.93 2.08zM33.477 0v50h13.107V0H33.477zm10.177 47.07h-7.247v-3.085h3.623v-2.93h-3.623v-2.93h3.623v-2.929h-3.623v-2.93h3.623v-2.93h-3.623v-2.929h3.623v-2.93h-3.623v-2.93h3.623v-2.929h-3.623v-2.93h3.623v-2.93h-3.623v-2.93h3.623V5.9h-3.623V2.93h7.247v44.14z" fill="#61594D"/></svg>
